X: 2
T: Fear A' Bhata
R: waltz
M: 3/4
L: 1/8
K: Gmaj
D3/2E/2|G2d2d3/2D/2|E2G2G3/2D/2|E2G2G3/2D/2|B2e2{B}d3/2c/2|B2d3/2c/2 A2|{GA}G4:||:B3/2A/2|G4{GA}B3/2D/2|E2G2e3/2d/2|{B}d4d3/2A/2|E2G2B3/2A/2|B2d3/2c/2 A2|{GA}G4:|]


Tune 8919	Setting 8919

